%%%%%%%%%%%%%%%%%%%%%%%%%%%%%%%%%%%%%%%%%%%%
beginfig(10);
label.bot("O", origin); 
pickup pencircle scaled 1pt;
draw (0,0)--(0,100)--(100,0)--(0,0); 
endfig;
%%%%%%%%%%%%%%%%%%%%%%%%%%%%%%%%%%%%%%%%%%%

